icon/cg/shape-zigzag.svg

<svg viewBox="0 0 24 24" fill="none" xmlns="http://www.w3.org/2000/svg" height="1em" width="1em">
  <path fill-rule="evenodd" clip-rule="evenodd" d="M2.31212 9L1 10.5094L4.77355 13.7897L6.28297 15.1018L7.59509 13.5924L9.13456 11.8214L11.3988 13.7897L12.9082 15.1018L14.2203 13.5924L15.7584 11.823L18.0209 13.7897L19.5303 15.1018L20.8424 13.5924L22.8106 11.3283L21.3012 10.0162L19.333 12.2803L15.5594 9L14.2473 10.5094L14.249 10.5109L12.7109 12.2803L8.93736 9L8.05395 10.0163L6.08567 12.2803L2.31212 9Z" fill="currentColor"/>
</svg>

<svg width="24" height="24" fill="none" xmlns="http://www.w3.org/2000/svg"><path fill-rule="evenodd" clip-rule="evenodd" d="M2.312 9 1 10.51l3.774 3.28 1.509 1.312 1.312-1.51 1.54-1.77 2.264 1.968 1.51 1.312 1.311-1.51 1.538-1.769 2.263 1.967 1.51 1.312 1.311-1.51 1.969-2.264-1.51-1.312-1.968 2.264L15.559 9l-1.312 1.51h.002l-1.538 1.77L8.937 9l-.883 1.016-1.968 2.264L2.312 9Z" fill="currentColor"/></svg>
